<?xml version="1.0" encoding="UTF-8"?>
<map version="1.10" tiledversion="1.11.2" orientation="orthogonal" renderorder="right-down" width="32" height="28" tilewidth="8" tileheight="8" infinite="0" nextlayerid="3" nextobjectid="7">
 <editorsettings>
  <export target="Level3.tmj" format="json"/>
 </editorsettings>
 <tileset firstgid="1" name="None" tilewidth="8" tileheight="8" tilecount="1" columns="1">
  <image source="3.jpg" width="8" height="8"/>
 </tileset>
 <tileset firstgid="2" name="Solid" tilewidth="8" tileheight="8" tilecount="1" columns="1">
  <image source="3.jpg" width="8" height="8"/>
  <tile id="0">
   <properties>
    <property name="col" type="int" value="0"/>
   </properties>
  </tile>
 </tileset>
 <tileset firstgid="3" name="TopOnly" tilewidth="8" tileheight="8" tilecount="1" columns="1">
  <properties>
   <property name="col" type="int" value="1"/>
  </properties>
  <image source="3.jpg" width="8" height="8"/>
  <tile id="0">
   <properties>
    <property name="col" type="int" value="1"/>
   </properties>
  </tile>
 </tileset>
 <layer id="1" name="Tile Layer 1" width="32" height="28">
  <data encoding="csv">
0,0,0,0,0,0,0,0,0,0,0,0,0,0,0,0,0,0,0,0,0,0,0,0,0,0,0,0,0,0,0,0,
0,0,0,0,0,0,0,0,0,0,0,0,0,0,0,0,0,0,0,0,0,0,0,0,0,0,0,0,0,0,0,0,
0,2,2,3,3,3,3,3,3,0,0,0,0,3,3,0,0,3,3,0,0,0,0,3,3,3,3,3,3,2,2,0,
0,2,2,0,0,0,0,0,0,0,0,0,0,0,0,0,0,0,0,0,0,0,0,0,0,0,0,0,0,2,2,0,
0,2,2,0,0,0,0,0,0,0,0,0,0,0,0,0,0,0,0,0,0,0,0,0,0,0,0,0,0,2,2,0,
0,2,2,0,0,0,0,0,0,0,0,0,0,0,0,0,0,0,0,0,0,0,0,0,0,0,0,0,0,2,2,0,
0,2,2,0,0,0,0,0,0,0,0,0,0,0,0,0,0,0,0,0,0,0,0,0,0,0,0,0,0,2,2,0,
0,2,2,0,0,0,2,3,3,3,3,3,3,0,0,0,0,0,0,3,3,3,3,3,3,2,0,0,0,2,2,0,
0,2,2,0,0,0,2,0,0,0,0,0,0,0,0,0,0,0,0,0,0,0,0,0,0,2,0,0,0,2,2,0,
0,2,2,0,0,0,2,0,0,0,0,0,0,0,0,0,0,0,0,0,0,0,0,0,0,2,0,0,0,2,2,0,
0,2,2,0,0,0,2,0,0,0,0,0,0,0,0,0,0,0,0,0,0,0,0,0,0,2,0,0,0,2,2,0,
0,2,2,0,0,0,2,0,0,0,0,0,0,0,0,0,0,0,0,0,0,0,0,0,0,2,0,0,0,2,2,0,
0,2,2,0,0,0,2,3,3,3,3,3,3,3,0,0,0,0,3,3,3,3,3,3,3,2,0,0,0,2,2,0,
0,2,2,0,0,0,2,0,0,0,0,0,0,0,0,0,0,0,0,0,0,0,0,0,0,2,0,0,0,2,2,0,
0,2,2,0,0,0,2,0,0,0,0,0,0,0,0,0,0,0,0,0,0,0,0,0,0,2,0,0,0,2,2,0,
0,2,2,0,0,0,2,0,0,0,0,0,0,0,0,0,0,0,0,0,0,0,0,0,0,2,0,0,0,2,2,0,
0,2,2,0,0,0,2,0,0,0,0,0,0,0,0,0,0,0,0,0,0,0,0,0,0,2,0,0,0,2,2,0,
0,2,2,0,0,0,2,3,3,3,3,3,3,3,3,0,0,3,3,3,3,3,3,3,3,2,0,0,0,2,2,0,
0,2,2,0,0,0,0,0,0,0,0,0,0,0,0,0,0,0,0,0,0,0,0,0,0,0,0,0,0,2,2,0,
0,2,2,0,0,0,0,0,0,0,0,0,0,0,0,0,0,0,0,0,0,0,0,0,0,0,0,0,0,2,2,0,
0,2,2,0,0,0,0,0,0,0,0,0,0,0,0,0,0,0,0,0,0,0,0,0,0,0,0,0,0,2,2,0,
0,2,2,3,3,3,3,0,0,3,3,3,0,0,0,0,0,0,0,0,3,3,3,0,0,3,3,3,3,2,2,0,
0,2,2,0,0,0,0,0,0,0,0,0,0,0,0,0,0,0,0,0,0,0,0,0,0,0,0,0,0,2,2,0,
0,2,2,0,0,0,0,0,0,0,0,0,0,0,0,0,0,0,0,0,0,0,0,0,0,0,0,0,0,2,2,0,
0,2,2,0,0,0,0,0,0,0,0,0,0,0,0,0,0,0,0,0,0,0,0,0,0,0,0,0,0,2,2,0,
0,2,0,3,3,3,3,3,3,0,0,0,0,3,3,3,3,3,3,0,0,0,0,3,3,3,3,3,3,2,2,0,
0,0,0,0,0,0,0,0,0,0,0,0,0,0,0,0,0,0,0,0,0,0,0,0,0,0,0,0,0,0,0,0,
0,0,0,0,0,0,0,0,0,0,0,0,0,0,0,0,0,0,0,0,0,0,0,0,0,0,0,0,0,0,0,0
</data>
 </layer>
 <objectgroup id="2" name="Object Layer 1">
  <object id="1" name="player" x="44.1429" y="187.871">
   <properties>
    <property name="isPlayerOne" type="bool" value="true"/>
   </properties>
  </object>
  <object id="2" name="player" x="211.192" y="187.494">
   <properties>
    <property name="isPlayerOne" type="bool" value="false"/>
   </properties>
  </object>
  <object id="3" name="ZenChan" x="196.243" y="34.8074"/>
  <object id="4" name="ZenChan" x="82.9" y="34.1537"/>
  <object id="5" name="ZenChan" x="58.7805" y="34.25"/>
  <object id="6" name="ZenChan" x="172.5" y="34.5"/>
 </objectgroup>
</map>
