<?xml version="1.0" encoding="UTF-8"?>
<map version="1.10" tiledversion="1.11.2" orientation="orthogonal" renderorder="right-down" width="32" height="28" tilewidth="8" tileheight="8" infinite="0" nextlayerid="3" nextobjectid="7">
 <tileset firstgid="1" name="None" tilewidth="8" tileheight="8" tilecount="1" columns="1">
  <image source="2.jpg" width="8" height="8"/>
 </tileset>
 <tileset firstgid="2" name="TopOnly" tilewidth="8" tileheight="8" tilecount="1" columns="1">
  <properties>
   <property name="col" type="int" value="1"/>
  </properties>
  <image source="2.jpg" width="8" height="8"/>
  <tile id="0">
   <properties>
    <property name="col" type="int" value="1"/>
   </properties>
  </tile>
 </tileset>
 <tileset firstgid="3" name="Solid" tilewidth="8" tileheight="8" tilecount="1" columns="1">
  <properties>
   <property name="col" type="int" value="0"/>
  </properties>
  <image source="2.jpg" width="8" height="8"/>
  <tile id="0">
   <properties>
    <property name="col" type="int" value="0"/>
   </properties>
  </tile>
 </tileset>
 <layer id="1" name="Tile Layer 1" width="32" height="28">
  <data encoding="csv">
0,0,0,0,0,0,0,0,0,0,0,0,0,0,0,0,0,0,0,0,0,0,0,0,0,0,0,0,0,0,0,0,
0,0,0,0,0,0,0,0,0,0,0,0,0,0,0,0,0,0,0,0,0,0,0,0,0,0,0,0,0,0,0,0,
0,3,3,1,1,1,1,1,1,1,1,1,1,1,1,0,0,1,1,1,1,1,1,1,1,1,1,1,1,3,3,0,
0,3,3,0,0,0,0,0,0,0,0,0,0,0,0,0,0,0,0,0,0,0,0,0,0,0,0,0,0,3,3,0,
0,3,3,0,0,0,0,0,0,0,0,0,0,0,0,0,0,0,0,0,0,0,0,0,0,0,0,0,0,3,3,0,
0,3,3,0,0,0,0,0,0,0,0,0,0,0,0,0,0,0,0,0,0,0,0,0,0,0,0,0,0,3,3,0,
0,3,3,0,0,0,0,0,0,0,0,0,0,2,2,2,2,2,2,0,0,0,0,0,0,0,0,0,0,3,3,0,
0,3,3,0,0,0,0,0,0,0,0,0,0,0,0,0,0,0,0,0,0,0,0,0,0,0,0,0,0,3,3,0,
0,3,3,0,0,0,0,0,0,0,0,0,0,0,0,0,0,0,0,0,0,0,0,0,0,0,0,0,0,3,3,0,
0,3,3,0,0,0,0,0,0,0,0,0,0,0,0,0,0,0,0,0,0,0,0,0,0,0,0,0,0,3,3,0,
0,3,3,0,0,0,0,0,0,0,0,0,0,0,0,0,0,0,0,0,0,0,0,0,0,0,0,0,0,3,3,0,
0,3,3,0,0,0,0,0,0,0,2,2,2,2,2,0,0,2,2,2,2,2,0,0,0,0,0,0,0,3,3,0,
0,3,3,0,0,0,0,0,0,0,0,0,0,0,0,0,0,0,0,0,0,0,0,0,0,0,0,0,0,3,3,0,
0,3,3,0,0,0,0,0,0,0,0,0,0,0,0,0,0,0,0,0,0,0,0,0,0,0,0,0,0,3,3,0,
0,3,3,0,0,0,0,0,0,0,0,0,0,0,0,0,0,0,0,0,0,0,0,0,0,0,0,0,0,3,3,0,
0,3,3,0,0,0,0,0,0,0,0,0,0,0,0,0,0,0,0,0,0,0,0,0,0,0,0,0,0,3,3,0,
0,3,3,0,0,0,0,2,2,2,2,2,2,2,2,2,2,2,2,2,2,2,2,2,2,0,0,0,0,3,3,0,
0,3,3,0,0,0,0,0,0,0,0,0,0,0,0,0,0,0,0,0,0,0,0,0,0,0,0,0,0,3,3,0,
0,3,3,0,0,0,0,0,0,0,0,0,0,0,0,0,0,0,0,0,0,0,0,0,0,0,0,0,0,3,3,0,
0,3,3,0,0,0,0,0,0,0,0,0,0,0,0,0,0,0,0,0,0,0,0,0,0,0,0,0,0,3,3,0,
0,3,3,0,0,2,2,2,2,2,2,2,0,0,2,2,2,2,0,0,2,2,2,2,2,2,2,0,0,3,3,0,
0,3,3,0,0,0,0,0,0,0,0,0,0,0,0,0,0,0,0,0,0,0,0,0,0,0,0,0,0,3,3,0,
0,3,3,0,0,0,0,0,0,0,0,0,0,0,0,0,0,0,0,0,0,0,0,0,0,0,0,0,0,3,3,0,
0,3,3,0,0,0,0,0,0,0,0,0,0,0,0,0,0,0,0,0,0,0,0,0,0,0,0,0,0,3,3,0,
0,3,3,0,0,0,0,0,0,0,0,0,0,0,0,0,0,0,0,0,0,0,0,0,0,0,0,0,0,3,3,0,
0,3,0,2,2,2,2,2,2,2,2,2,2,2,2,2,2,2,2,2,2,2,2,2,2,2,2,2,2,3,3,0,
0,0,0,0,0,0,0,0,0,0,0,0,0,0,0,0,0,0,0,0,0,0,0,0,0,0,0,0,0,0,0,0,
0,0,0,0,0,0,0,0,0,0,0,0,0,0,0,0,0,0,0,0,0,0,0,0,0,0,0,0,0,0,0,0
</data>
 </layer>
 <objectgroup id="2" name="Object Layer 1">
  <object id="1" name="player" x="43.8809" y="186.824">
   <properties>
    <property name="isPlayerOne" type="bool" value="true"/>
   </properties>
  </object>
  <object id="2" name="player" x="210.93" y="186.447">
   <properties>
    <property name="isPlayerOne" type="bool" value="false"/>
   </properties>
  </object>
  <object id="3" name="ZenChan" x="165.731" y="17.0104"/>
  <object id="4" name="ZenChan" x="116.388" y="17.8567"/>
  <object id="5" name="ZenChan" x="89.2685" y="17.703"/>
  <object id="6" name="ZenChan" x="138.988" y="17.703"/>
 </objectgroup>
</map>
